X:83
T:The Bashful Batchelor   Hornpipe  Allan's # 83  pg 21
C:Trad/Anon
B:Allan's Irish Fiddler (pub. Mozart Allen,  Glascow) date unknown
Z:FROM ALLAN'S TO NOTEWORTHY, FROM NOTEWORTHY TO ABC, MIDI AND .TXT BY VINCE
BRENNAN Dec. 2002 (HTTP://WWW.SOSYOURMOM.COM)
I:abc2nwc
M:4/4
L:1/8
K:G
D3/2C/2|B,3/2D/2G3/2A/2 B3/2G/2D3/2B,/2|C3/2E/2A3/2B/2 c3/2A/2F3/2D/2|B,3/2D/2G3/2A/2 B3/2G/2c3/2B/2|
 (3(ABA)  (3(GFE)  (3(DED)  (3(CB,A,)|G,3/2B,/2D3/2G/2 B3/2G/2D3/2B,/2|
C3/2E/2A3/2B/2 c3/2A/2F3/2D/2|B,3/2D/2G3/2B/2 A3/2D/2E3/2F/2|G2B2G2:|
|:g3/2a/2|b3/2g/2e3/2g/2 d3/2g/2B3/2g/2|d3/2g/2B3/2g/2 d3/2g/2B3/2g/2|a3/2f/2  (3(def) d3/2g/2B3/2g/2|
e3/2a/2{b}a3/2g/2 a2g3/2a/2|b3/2g/2e3/2g/2 d3/2g/2B3/2d/2|
c3/2B/2A3/2B/2 c3/2d/2e3/2g/2|g3/2d/2B3/2G/2 E3/2c/2A3/2F/2|G2B2G2:|
